X: 17023
T: Heart Shaped Wood
R: slip jig
M: 9/8
K: Bminor
|:Bfe dBA B2F|~A3 A2F E2A|Bfe dBA B2F|~A3 AB/c/d ecA:|
~B3 d2e ~f3|~B3 d2e fef|~B3 def e2c|~A3 AB/c/d ecA|
~B3 d2e ~f3|~B3 d2e fef|baf efa fed|BAF E2A EFA||

